; generated by PrusaSlicer 2.3.3+win64 on 2021-08-03 at 19:49:32 UTC

; 

; external perimeters extrusion width = 0.45mm
; perimeters extrusion width = 0.40mm
; infill extrusion width = 0.45mm
; solid infill extrusion width = 0.45mm
; top infill extrusion width = 0.40mm
; first layer extrusion width = 0.40mm

M201 X500 Y500 Z100 E1000 ; sets maximum accelerations, mm/sec^2
M203 X500 Y500 Z5 E60 ; sets maximum feedrates, mm/sec
M204 P500 R1000 T500 ; sets acceleration (P, T) and retract acceleration (R), mm/sec^2
M205 X8.00 Y8.00 Z0.40 E5.00 ; sets the jerk limits, mm/sec
M205 S0 T0 ; sets the minimum extruding and travel feed rate, mm/sec
M107
;TYPE:Custom
G90 ; use absolute coordinates
M83 ; extruder relative mode
M140 S50 ; set final bed temp
M104 S150 ; set temporary nozzle temp to prevent oozing during homing
G4 S10 ; allow partial nozzle warmup
G28 ; home all axis
G1 Z50 F240
G1 X2 Y10 F3000
M104 S210 ; set final nozzle temp
M190 S50 ; wait for bed temp to stabilize
M109 S210 ; wait for nozzle temp to stabilize
G1 Z0.28 F240
G92 E0
G1 Y140 E10 F1500 ; prime the nozzle
G1 X2.3 F5000
G92 E0
G1 Y10 E10 F1200 ; prime the nozzle
G92 E0
G21 ; set units to millimeters
G90 ; use absolute coordinates
M83 ; use relative distances for extrusion
; Filament gcode
;LAYER_CHANGE
;Z:0.2
;HEIGHT:0.2
;BEFORE_LAYER_CHANGE
G92 E0
;0.2


G1 E-6.00000 F3600.000
G1 Z0.200 F9000.000
;AFTER_LAYER_CHANGE
;0.2
G1 X108.392 Y102.828
G1 E6.00000 F2400.000
M204 S500
;TYPE:Skirt
;WIDTH:0.4
G1 F3000.000
G1 X110.845 Y101.548 E0.08216
G1 X113.530 Y100.879 E0.08216
G1 X115.969 Y100.844 E0.07242
G1 X116.837 Y100.948 E0.02595
G1 X118.841 Y101.444 E0.06129
G1 X119.493 Y101.695 E0.02075
G1 X121.692 Y102.886 E0.07426
G1 X123.758 Y104.720 E0.08202
G1 X125.347 Y107.009 E0.08272
G1 X126.262 Y109.326 E0.07398
G1 X126.454 Y110.131 E0.02455
G1 X126.700 Y112.171 E0.06101
G1 X126.696 Y112.865 E0.02061
G1 X126.362 Y115.348 E0.07440
G1 X125.375 Y117.939 E0.08230
G1 X123.803 Y120.228 E0.08244
G1 X121.975 Y121.892 E0.07341
G1 X121.277 Y122.369 E0.02511
G1 X119.457 Y123.322 E0.06101
G1 X118.806 Y123.565 E0.02061
G1 X116.375 Y124.133 E0.07412
G1 X113.670 Y124.138 E0.08034
G1 X111.201 Y123.567 E0.07524
G1 X110.443 Y123.272 E0.02413
G1 X108.292 Y122.103 E0.07270
G1 X106.201 Y120.233 E0.08328
G1 X104.648 Y117.983 E0.08118
G1 X103.735 Y115.665 E0.07398
G1 X103.546 Y114.865 E0.02441
G1 X103.300 Y112.829 E0.06087
G1 X103.304 Y112.135 E0.02061
G1 X103.627 Y109.693 E0.07314
G1 X104.491 Y107.346 E0.07427
G1 X104.800 Y106.761 E0.01962
G1 X105.972 Y105.062 E0.06129
G1 X106.540 Y104.423 E0.02539
G1 X108.346 Y102.867 E0.07078
G1 X108.578 Y103.135 F9000.000
G1 F3000.000
G1 X110.970 Y101.882 E0.08019
G1 X113.583 Y101.232 E0.07996
G1 X115.969 Y101.201 E0.07083
G1 X116.754 Y101.295 E0.02347
G1 X118.741 Y101.787 E0.06079
G1 X119.336 Y102.016 E0.01892
G1 X121.483 Y103.175 E0.07245
G1 X123.493 Y104.960 E0.07982
G1 X125.036 Y107.184 E0.08036
G1 X125.925 Y109.446 E0.07218
G1 X126.099 Y110.175 E0.02226
G1 X126.344 Y112.199 E0.06052
G1 X126.340 Y112.836 E0.01892
G1 X126.017 Y115.259 E0.07258
G1 X125.057 Y117.775 E0.07996
G1 X123.532 Y119.995 E0.07996
G1 X121.743 Y121.621 E0.07177
G1 X121.110 Y122.054 E0.02280
G1 X119.304 Y123.000 E0.06052
G1 X118.707 Y123.222 E0.01892
G1 X116.336 Y123.778 E0.07231
G1 X113.701 Y123.782 E0.07822
G1 X111.298 Y123.224 E0.07325
G1 X110.608 Y122.955 E0.02200
G1 X108.503 Y121.814 E0.07110
G1 X106.471 Y119.999 E0.08089
G1 X104.960 Y117.808 E0.07902
G1 X104.073 Y115.550 E0.07204
G1 X103.900 Y114.819 E0.02229
G1 X103.656 Y112.801 E0.06035
G1 X103.660 Y112.164 E0.01892
G1 X103.973 Y109.780 E0.07138
G1 X104.818 Y107.491 E0.07245
G1 X105.103 Y106.951 E0.01812
G1 X106.262 Y105.269 E0.06065
G1 X106.778 Y104.689 E0.02307
G1 X108.532 Y103.174 E0.06881
G1 E-4.20000 F3600.000
;WIPE_START
G1 F7200.000
G1 X110.970 Y101.882 E-1.31062
G1 X111.786 Y101.679 E-0.39938
;WIPE_END
G1 E-0.09000 F3600.000
G1 X112.455 Y108.539 F9000.000
G1 E6.00000 F2400.000
;TYPE:Perimeter
G1 F3000.000
G1 X112.545 Y108.582 E0.00297
G1 X112.927 Y108.589 E0.01132
G1 X113.402 Y108.372 E0.01551
G1 X113.646 Y108.079 E0.01132
G1 X113.673 Y107.981 E0.00301
G1 X113.749 Y108.049 E0.00300
G1 X114.112 Y108.163 E0.01132
G1 X114.630 Y108.089 E0.01551
G1 X114.947 Y107.876 E0.01132
G1 X115.000 Y107.791 E0.00300
G1 X115.053 Y107.876 E0.00300
G1 X115.370 Y108.089 E0.01132
G1 X115.887 Y108.163 E0.01551
G1 X116.262 Y108.045 E0.01166
G1 X116.326 Y107.983 E0.00264
G1 X116.341 Y108.047 E0.00194
G1 X116.468 Y108.227 E0.00653
G1 X116.604 Y108.365 E0.00576
G1 X116.831 Y108.491 E0.00771
G1 X117.074 Y108.580 E0.00771
G1 X117.268 Y108.592 E0.00576
G1 X117.476 Y108.571 E0.00620
G1 X117.546 Y108.538 E0.00232
G1 X117.547 Y108.645 E0.00318
G1 X117.696 Y108.989 E0.01113
G1 X118.091 Y109.331 E0.01552
G1 X118.459 Y109.432 E0.01132
G1 X118.559 Y109.416 E0.00301
G1 X118.530 Y109.519 E0.00318
G1 X118.576 Y109.891 E0.01113
G1 X118.859 Y110.331 E0.01552
G1 X119.184 Y110.531 E0.01133
G1 X119.284 Y110.544 E0.00300
G1 X119.228 Y110.628 E0.00300
G1 X119.166 Y111.004 E0.01132
G1 X119.314 Y111.506 E0.01551
G1 X119.569 Y111.789 E0.01132
G1 X119.662 Y111.830 E0.00301
G1 X119.584 Y111.895 E0.00300
G1 X119.424 Y112.229 E0.01100
G1 X119.410 Y112.588 E0.01066
G1 X119.433 Y112.790 E0.00605
G1 X119.581 Y113.099 E0.01017
G1 X119.661 Y113.169 E0.00316
G1 X119.576 Y113.203 E0.00270
G1 X119.314 Y113.494 E0.01165
G1 X119.166 Y113.996 E0.01551
G1 X119.228 Y114.372 E0.01132
G1 X119.284 Y114.457 E0.00302
G1 X119.178 Y114.473 E0.00319
G1 X118.859 Y114.669 E0.01113
G1 X118.576 Y115.109 E0.01551
G1 X118.529 Y115.487 E0.01132
G1 X118.559 Y115.583 E0.00297
G1 X118.493 Y115.570 E0.00199
G1 X118.277 Y115.610 E0.00653
G1 X118.095 Y115.676 E0.00576
G1 X117.886 Y115.830 E0.00770
G1 X117.704 Y116.015 E0.00770
G1 X117.612 Y116.186 E0.00576
G1 X117.547 Y116.378 E0.00601
G1 X117.546 Y116.461 E0.00246
G1 X117.466 Y116.419 E0.00270
G1 X117.073 Y116.411 E0.01166
G1 X116.598 Y116.628 E0.01551
G1 X116.354 Y116.921 E0.01132
G1 X116.327 Y117.019 E0.00301
G1 X116.251 Y116.951 E0.00300
G1 X115.918 Y116.847 E0.01037
G1 X115.714 Y116.853 E0.00605
G1 X115.361 Y116.917 E0.01066
G1 X115.053 Y117.124 E0.01100
G1 X115.001 Y117.208 E0.00297
G1 X114.968 Y117.150 E0.00198
G1 X114.795 Y117.013 E0.00653
G1 X114.626 Y116.919 E0.00576
G1 X114.373 Y116.862 E0.00771
G1 X114.114 Y116.845 E0.00771
G1 X113.925 Y116.888 E0.00576
G1 X113.737 Y116.964 E0.00601
G1 X113.673 Y117.019 E0.00249
G1 X113.646 Y116.921 E0.00301
G1 X113.402 Y116.628 E0.01133
G1 X112.927 Y116.411 E0.01552
G1 X112.545 Y116.418 E0.01132
G1 X112.454 Y116.462 E0.00300
G1 X112.455 Y116.361 E0.00300
G1 X112.304 Y116.011 E0.01132
G1 X111.909 Y115.669 E0.01552
G1 X111.522 Y115.563 E0.01190
G1 X111.442 Y115.581 E0.00245
G1 X111.471 Y115.488 E0.00292
G1 X111.424 Y115.109 E0.01132
G1 X111.141 Y114.669 E0.01552
G1 X110.807 Y114.463 E0.01166
G1 X110.717 Y114.455 E0.00269
G1 X110.772 Y114.372 E0.00296
G1 X110.834 Y113.996 E0.01132
G1 X110.686 Y113.494 E0.01551
G1 X110.431 Y113.211 E0.01132
G1 X110.338 Y113.170 E0.00301
G1 X110.416 Y113.105 E0.00300
G1 X110.576 Y112.771 E0.01100
G1 X110.590 Y112.412 E0.01066
G1 X110.567 Y112.210 E0.00605
G1 X110.419 Y111.901 E0.01017
G1 X110.339 Y111.831 E0.00316
G1 X110.402 Y111.806 E0.00200
G1 X110.562 Y111.655 E0.00653
G1 X110.679 Y111.501 E0.00576
G1 X110.772 Y111.259 E0.00771
G1 X110.825 Y111.005 E0.00771
G1 X110.809 Y110.811 E0.00576
G1 X110.761 Y110.615 E0.00601
G1 X110.716 Y110.544 E0.00250
G1 X110.816 Y110.531 E0.00301
G1 X111.141 Y110.331 E0.01132
G1 X111.424 Y109.891 E0.01551
G1 X111.471 Y109.513 E0.01132
G1 X111.441 Y109.416 E0.00301
G1 X111.518 Y109.428 E0.00231
G1 X111.723 Y109.390 E0.00620
G1 X111.905 Y109.324 E0.00576
G1 X112.114 Y109.170 E0.00770
G1 X112.296 Y108.985 E0.00770
G1 X112.388 Y108.814 E0.00576
G1 X112.458 Y108.599 E0.00673
G1 X111.659 Y107.301 F9000.000
G1 F3000.000
G1 X111.655 Y107.203 E0.00292
G1 X111.793 Y106.835 E0.01168
G1 X112.128 Y106.543 E0.01320
G1 X112.492 Y106.396 E0.01164
G1 X112.840 Y106.374 E0.01035
G1 X113.188 Y106.503 E0.01103
G1 X113.259 Y106.570 E0.00291
G1 X113.283 Y106.475 E0.00291
G1 X113.505 Y106.178 E0.01103
G1 X113.810 Y106.009 E0.01035
G1 X114.195 Y105.936 E0.01164
G1 X114.635 Y106.000 E0.01320
G1 X114.951 Y106.236 E0.01169
G1 X115.000 Y106.320 E0.00291
G1 X115.060 Y106.228 E0.00327
G1 X115.328 Y106.027 E0.00995
G1 X115.550 Y105.958 E0.00688
G1 X115.813 Y105.941 E0.00785
G1 X116.089 Y105.980 E0.00829
G1 X116.481 Y106.161 E0.01281
G1 X116.712 Y106.468 E0.01141
G1 X116.741 Y106.571 E0.00317
G1 X116.821 Y106.500 E0.00317
G1 X117.181 Y106.366 E0.01141
G1 X117.621 Y106.428 E0.01320
G1 X117.970 Y106.607 E0.01164
G1 X118.215 Y106.855 E0.01036
G1 X118.345 Y107.203 E0.01103
G1 X118.341 Y107.301 E0.00291
G1 X118.438 Y107.256 E0.00316
G1 X118.776 Y107.232 E0.01006
G1 X119.013 Y107.298 E0.00731
G1 X119.335 Y107.497 E0.01124
G1 X119.578 Y107.788 E0.01125
G1 X119.677 Y108.013 E0.00731
G1 X119.702 Y108.360 E0.01034
G1 X119.671 Y108.453 E0.00290
G1 X119.767 Y108.435 E0.00290
G1 X120.151 Y108.519 E0.01169
G1 X120.478 Y108.801 E0.01281
G1 X120.629 Y109.035 E0.00828
G1 X120.722 Y109.283 E0.00785
G1 X120.752 Y109.513 E0.00688
G1 X120.678 Y109.853 E0.01034
G1 X120.621 Y109.933 E0.00290
G1 X120.719 Y109.943 E0.00291
G1 X121.064 Y110.132 E0.01169
G1 X121.306 Y110.505 E0.01320
G1 X121.399 Y110.886 E0.01164
G1 X121.371 Y111.234 E0.01036
G1 X121.193 Y111.560 E0.01103
G1 X121.117 Y111.621 E0.00291
G1 X121.214 Y111.664 E0.00317
G1 X121.486 Y111.936 E0.01141
G1 X121.612 Y112.362 E0.01320
G1 X121.594 Y112.754 E0.01164
G1 X121.478 Y113.059 E0.00968
G1 X121.341 Y113.219 E0.00627
G1 X121.196 Y113.343 E0.00565
G1 X121.117 Y113.380 E0.00260
G1 X121.198 Y113.449 E0.00317
G1 X121.382 Y113.786 E0.01141
G1 X121.383 Y114.231 E0.01320
G1 X121.255 Y114.601 E0.01164
G1 X121.045 Y114.879 E0.01035
G1 X120.719 Y115.057 E0.01103
G1 X120.621 Y115.067 E0.00291
G1 X120.668 Y115.141 E0.00260
G1 X120.734 Y115.359 E0.00675
G1 X120.735 Y115.697 E0.01005
G1 X120.569 Y116.079 E0.01236
G1 X120.291 Y116.389 E0.01236
G1 X119.982 Y116.528 E0.01005
G1 X119.753 Y116.559 E0.00687
G1 X119.670 Y116.547 E0.00249
G1 X119.701 Y116.649 E0.00318
G1 X119.674 Y117.032 E0.01141
G1 X119.441 Y117.396 E0.01281
G1 X119.231 Y117.578 E0.00828
G1 X118.999 Y117.706 E0.00785
G1 X118.776 Y117.768 E0.00688
G1 X118.442 Y117.744 E0.00995
G1 X118.341 Y117.699 E0.00328
G1 X118.342 Y117.806 E0.00317
G1 X118.207 Y118.165 E0.01141
G1 X117.882 Y118.449 E0.01281
G1 X117.628 Y118.565 E0.00828
G1 X117.370 Y118.622 E0.00785
G1 X117.139 Y118.618 E0.00688
G1 X116.825 Y118.501 E0.00995
G1 X116.741 Y118.430 E0.00327
G1 X116.717 Y118.525 E0.00291
G1 X116.481 Y118.839 E0.01168
G1 X116.078 Y119.025 E0.01320
G1 X115.687 Y119.063 E0.01164
G1 X115.347 Y118.987 E0.01035
G1 X115.049 Y118.764 E0.01103
G1 X115.000 Y118.680 E0.00291
G1 X114.943 Y118.770 E0.00317
G1 X114.672 Y118.973 E0.01006
G1 X114.437 Y119.046 E0.00731
G1 X114.058 Y119.052 E0.01124
G1 X113.696 Y118.939 E0.01124
G1 X113.491 Y118.803 E0.00731
G1 X113.290 Y118.535 E0.00995
G1 X113.259 Y118.430 E0.00327
G1 X113.188 Y118.497 E0.00291
G1 X112.819 Y118.634 E0.01168
G1 X112.379 Y118.572 E0.01320
G1 X112.030 Y118.393 E0.01164
G1 X111.785 Y118.145 E0.01036
G1 X111.655 Y117.796 E0.01103
G1 X111.659 Y117.699 E0.00290
G1 X111.572 Y117.743 E0.00290
G1 X111.179 Y117.771 E0.01168
G1 X110.774 Y117.587 E0.01320
G1 X110.490 Y117.317 E0.01165
G1 X110.325 Y117.010 E0.01036
G1 X110.299 Y116.649 E0.01075
G1 X110.330 Y116.547 E0.00316
G1 X110.233 Y116.565 E0.00291
G1 X109.870 Y116.486 E0.01103
G1 X109.590 Y116.278 E0.01036
G1 X109.363 Y115.959 E0.01164
G1 X109.239 Y115.532 E0.01320
G1 X109.320 Y115.156 E0.01141
G1 X109.379 Y115.067 E0.00316
G1 X109.281 Y115.057 E0.00291
G1 X108.936 Y114.868 E0.01169
G1 X108.694 Y114.495 E0.01320
G1 X108.601 Y114.114 E0.01164
G1 X108.629 Y113.766 E0.01036
G1 X108.807 Y113.440 E0.01103
G1 X108.883 Y113.379 E0.00291
G1 X108.786 Y113.336 E0.00317
G1 X108.514 Y113.064 E0.01141
G1 X108.388 Y112.638 E0.01320
G1 X108.406 Y112.246 E0.01164
G1 X108.522 Y111.941 E0.00968
G1 X108.659 Y111.781 E0.00627
G1 X108.804 Y111.657 E0.00565
G1 X108.883 Y111.620 E0.00260
G1 X108.802 Y111.551 E0.00317
G1 X108.640 Y111.254 E0.01006
G1 X108.601 Y111.011 E0.00731
G1 X108.649 Y110.635 E0.01124
G1 X108.812 Y110.293 E0.01124
G1 X108.976 Y110.110 E0.00731
G1 X109.270 Y109.949 E0.00995
G1 X109.379 Y109.933 E0.00327
G1 X109.322 Y109.853 E0.00291
G1 X109.239 Y109.468 E0.01169
G1 X109.363 Y109.041 E0.01320
G1 X109.590 Y108.721 E0.01164
G1 X109.852 Y108.528 E0.00968
G1 X110.054 Y108.467 E0.00627
G1 X110.256 Y108.439 E0.00604
G1 X110.330 Y108.453 E0.00222
G1 X110.298 Y108.360 E0.00291
G1 X110.325 Y107.990 E0.01103
G1 X110.490 Y107.683 E0.01035
G1 X110.774 Y107.413 E0.01164
G1 X111.179 Y107.229 E0.01320
G1 X111.562 Y107.256 E0.01140
G1 X111.605 Y107.276 E0.00139
G1 E-4.20000 F3600.000
;WIPE_START
G1 F7200.000
G1 X111.655 Y107.203 E-0.04199
G1 X111.793 Y106.835 E-0.18692
G1 X112.128 Y106.543 E-0.21111
G1 X112.492 Y106.396 E-0.18624
G1 X112.840 Y106.374 E-0.16564
G1 X113.188 Y106.503 E-0.17648
G1 X113.259 Y106.570 E-0.04648
G1 X113.283 Y106.475 E-0.04653
G1 X113.505 Y106.178 E-0.17642
G1 X113.810 Y106.009 E-0.16564
G1 X114.195 Y105.936 E-0.18622
G1 X114.446 Y105.972 E-0.12034
;WIPE_END
G1 E-0.09000 F3600.000
G1 X115.498 Y117.255 F9000.000
G1 E6.00000 F2400.000
;TYPE:External perimeter
G1 F3000.000
G1 X115.869 Y117.205 E0.01110
G1 X116.071 Y117.269 E0.00629
G1 X116.320 Y117.491 E0.00991
G1 X116.448 Y117.715 E0.00766
G1 X116.486 Y117.977 E0.00786
G1 X116.388 Y118.368 E0.01196
G1 X116.250 Y118.553 E0.00685
G1 X115.983 Y118.676 E0.00872
G1 X115.710 Y118.702 E0.00816
G1 X115.500 Y118.655 E0.00639
G1 X115.321 Y118.522 E0.00662
G1 X115.118 Y118.174 E0.01197
G1 X115.080 Y117.912 E0.00786
G1 X115.140 Y117.661 E0.00766
G1 X115.316 Y117.377 E0.00991
G1 X115.448 Y117.289 E0.00473
G1 X115.555 Y116.886 F9000.000
G1 X116.588 Y117.589
G1 F3000.000
G1 X116.590 Y117.406 E0.00544
G1 X116.677 Y117.091 E0.00972
G1 X116.820 Y116.919 E0.00663
G1 X117.148 Y116.770 E0.01069
G1 X117.375 Y116.774 E0.00675
G1 X117.737 Y116.963 E0.01213
G1 X117.905 Y117.171 E0.00793
G1 X117.981 Y117.415 E0.00757
G1 X117.984 Y117.743 E0.00974
G1 X117.905 Y117.956 E0.00675
G1 X117.687 Y118.145 E0.00858
G1 X117.514 Y118.224 E0.00562
G1 X117.334 Y118.264 E0.00548
G1 X117.206 Y118.262 E0.00381
G1 X117.009 Y118.189 E0.00623
G1 X116.818 Y118.024 E0.00750
G1 X116.664 Y117.835 E0.00724
G1 X116.606 Y117.647 E0.00586
G1 X116.417 Y117.523 F9000.000
G1 E-4.20000 F3600.000
;WIPE_START
G1 F7200.000
G1 X116.590 Y117.406 E-0.11442
G1 X116.677 Y117.091 E-0.15551
G1 X116.820 Y116.919 E-0.10602
G1 X117.148 Y116.770 E-0.17101
G1 X117.375 Y116.774 E-0.10797
G1 X117.737 Y116.963 E-0.19413
G1 X117.905 Y117.171 E-0.12690
G1 X117.981 Y117.415 E-0.12117
G1 X117.984 Y117.743 E-0.15577
G1 X117.905 Y117.956 E-0.10802
G1 X117.687 Y118.145 E-0.13728
G1 X117.514 Y118.224 E-0.08999
G1 X117.334 Y118.264 E-0.08775
G1 X117.262 Y118.263 E-0.03408
;WIPE_END
G1 E-0.09000 F3600.000
G1 X118.371 Y115.956 F9000.000
G1 E6.00000 F2400.000
G1 F3000.000
G1 X118.491 Y115.933 E0.00363
G1 X118.884 Y116.011 E0.01188
G1 X119.104 Y116.163 E0.00793
G1 X119.245 Y116.376 E0.00757
G1 X119.340 Y116.689 E0.00974
G1 X119.324 Y116.916 E0.00675
G1 X119.168 Y117.160 E0.00858
G1 X119.025 Y117.284 E0.00563
G1 X118.863 Y117.373 E0.00548
G1 X118.740 Y117.407 E0.00381
G1 X118.530 Y117.392 E0.00623
G1 X118.300 Y117.289 E0.00750
G1 X118.100 Y117.150 E0.00724
G1 X117.954 Y116.930 E0.00783
G1 X117.902 Y116.688 E0.00735
G1 X117.904 Y116.438 E0.00742
G1 X117.941 Y116.329 E0.00344
G1 X117.994 Y116.229 E0.00336
G1 X118.120 Y116.101 E0.00533
G1 X118.315 Y115.976 E0.00686
G1 X118.394 Y115.836 F9000.000
G1 X119.084 Y115.918
G1 F3000.000
G1 X118.990 Y115.768 E0.00525
G1 X118.893 Y115.455 E0.00972
G1 X118.921 Y115.234 E0.00663
G1 X119.115 Y114.931 E0.01069
G1 X119.303 Y114.815 E0.00656
G1 X119.559 Y114.776 E0.00767
G1 X119.806 Y114.793 E0.00735
G1 X120.044 Y114.907 E0.00783
G1 X120.210 Y115.085 E0.00724
G1 X120.341 Y115.291 E0.00725
